X:390
T:Salt Creek
C:Traditional 
N:Transcribed by Mike Stangeland
R:bluegrass
L:1/8
Q:1/4=225
M:4/4
K:A
z8 | "A"A2 AA A2 AB | cA B"D"c d2 A2 | "G"BA =GA BA GA | BA =GF "E"E2 E2 | "A"A2 AA A2 AB | 
cA Bc "D"d2 ed | "G"ce fg af ed | cA Bc A4 | "A"A2 AA A2 AB | cA Bc "D"d2 A2 | 
"G"BA =GA BA GA | BA =GF "E"E4 | "A"A2 AA A2 AB | cA B"D"c d2 ed | "G"ce fg af ed | 
"E"cA B"A"c A4 | "A"a2 aa a2 ab | c'e be ab ae | "G"=ga gf ef ga | =gf ed cB A2 | 
"A"a2 aa a2 ab | c'e be ab ae | =ga gf ef ed | "E"cA B"A"c A4 | a2 aa a2 ab | 
c'e be ab ae | "G"=ga gf ef ga | =gf ed cB A2 | "A"a2 aa a2 ab | c'e be ab ae | 
"G"=ga gf ef ed | "E"cA Bc "A"A4 | 


